X: 1
T: MacLeod's Farewell
T: Wedding Reel, The
M: 4/4
L: 1/8
D: Merry Sisters of Fate, Lunasa
C: Donald Shaw
K: D
DE|E-FBF AFEF|D/D/D DE FABd|eefd efed|ABeB dBAG|
E-F2 B AFEF|D/D/D DE FABd|eefd efdB|ABde dDDE|
FDBF AFEF|E/E/D DE FABd|eefd efed|B4 dBAG|
E-F2 B AFEF|D/D/D DE FABd|eefd efdB|ABde dABd||
A3f edfd|B/B/A Af edfd|ABdA BdAB|dBAF EDB,D|
EFBF AFEF|E/E/D DE FABd|eefd efdB|ABde d~B3|
A3f edfd|B/B/A Af edfd|ABdA BdAB|dBAF EDB,D|
E-FBF AFEF|E/E/D DE FABd|eefd efdB|ABde dDDE||
For the B4 in the A part, Sean sometimes substitutes: |~B3e dBAG|
